exports/damage-costs-from-natural-disasters_v3_850x600.svg

<svg xmlns="http://www.w3.org/2000/svg" version="1.1" style="background-color:#fff;-webkit-font-smoothing:antialiased" width="850" height="600" font-family="'Helvetica Neue',Helvetica,Arial,sans-serif" font-size="18" text-rendering="optimizeLegibility"><g class="ChartTab"><g class="HeaderView"><g opacity=".8" transform="matrix(.27 0 0 .27 778 15)"><a xmlns:xlink="http://www.w3.org/1999/xlink" xlink:href="https://ourworldindata.org" target="_blank"><g><path fill="#1B2543" d="M0 0h211.2v130.1H0z"/><path fill="#E63912" d="M0 112.2h211.2v17.9H0z"/><g><path fill="none" d="M1.2 12.3h210.2v99.2H1.2z"/><path fill="#FFF" d="M37.8 32.2c0 12.7-7.7 19.4-17.1 19.4-9.7 0-16.6-7.5-16.6-18.7 0-11.7 7.3-19.3 17.1-19.3 10.1.1 16.6 7.7 16.6 18.6zm-28.6.6c0 7.9 4.3 14.9 11.8 14.9 7.5 0 11.8-6.9 11.8-15.3 0-7.3-3.8-14.9-11.8-14.9-7.9 0-11.8 7.3-11.8 15.3zM62.7 43.8c0 2.7.1 5.1.2 7.2h-4.3l-.3-4.3h-.1c-1.3 2.1-4 4.9-8.8 4.9-4.2 0-9.1-2.3-9.1-11.6V24.6h4.8v14.6c0 5 1.5 8.4 5.9 8.4 3.2 0 5.5-2.2 6.3-4.4.3-.7.4-1.6.4-2.5V24.6h4.8v19.2zM67.3 32.8c0-3.1-.1-5.8-.2-8.2h4.2l.2 5.2h.2c1.2-3.5 4.1-5.8 7.3-5.8.5 0 .9.1 1.4.2v4.5c-.5-.1-1-.2-1.6-.2-3.4 0-5.8 2.6-6.5 6.2-.1.7-.2 1.4-.2 2.2V51h-4.8V32.8zM95.4 51L86 14.2h5l4.4 18.6c1.1 4.6 2.1 9.2 2.7 12.7h.1c.6-3.7 1.8-8 3-12.8l4.9-18.5h5l4.5 18.7c1 4.4 2 8.7 2.6 12.6h.1c.8-4 1.8-8.1 3-12.7l4.9-18.5h4.9L120.6 51h-5L111 31.9c-1.1-4.7-1.9-8.3-2.4-12h-.1c-.7 3.7-1.5 7.3-2.8 12L100.4 51h-5zM154.9 37.6c0 9.8-6.8 14-13.2 14-7.2 0-12.7-5.2-12.7-13.6 0-8.8 5.8-14 13.1-14 7.7 0 12.8 5.5 12.8 13.6zm-21 .3c0 5.8 3.3 10.1 8 10.1 4.6 0 8-4.3 8-10.3 0-4.5-2.2-10.1-7.9-10.1s-8.1 5.2-8.1 10.3zM158.2 32.8c0-3.1-.1-5.8-.2-8.2h4.2l.2 5.2h.2c1.2-3.5 4.1-5.8 7.3-5.8.5 0 .9.1 1.4.2v4.5c-.5-.1-1-.2-1.6-.2-3.4 0-5.8 2.6-6.5 6.2-.1.7-.2 1.4-.2 2.2V51h-4.8V32.8zM173.5 12.3h4.8V51h-4.8V12.3zM206.5 12.3v31.9c0 2.3.1 5 .2 6.8h-4.3l-.2-4.6h-.2c-1.5 2.9-4.7 5.2-9 5.2-6.4 0-11.3-5.4-11.3-13.4-.1-8.8 5.4-14.2 11.9-14.2 4 0 6.8 1.9 8 4h.1V12.3h4.8zm-4.8 23.1c0-.6-.1-1.4-.2-2a7 7 0 00-6.9-5.6c-5 0-7.9 4.4-7.9 10.2 0 5.3 2.6 9.8 7.8 9.8 3.2 0 6.2-2.1 7.1-5.7.2-.7.2-1.3.2-2.1v-4.6zM42.8 64c.1 1.6-1.1 2.9-3.1 2.9-1.7 0-2.9-1.3-2.9-2.9 0-1.7 1.3-3 3-3 1.9 0 3 1.3 3 3zm-5.4 33.8V71.4h4.8v26.4h-4.8zM47.5 78.6c0-2.7-.1-5-.2-7.1h4.3l.3 4.4h.1c1.3-2.5 4.4-5 8.8-5 3.7 0 9.4 2.2 9.4 11.2v15.8h-4.8V82.6c0-4.3-1.6-7.8-6.1-7.8-3.2 0-5.6 2.2-6.5 4.9-.2.6-.3 1.4-.3 2.2v15.9h-4.8V78.6zM84 61.6c2.9-.4 6.3-.8 10.1-.8 6.8 0 11.7 1.6 14.9 4.6 3.3 3 5.2 7.3 5.2 13.2 0 6-1.9 10.9-5.3 14.3-3.4 3.4-9.1 5.3-16.3 5.3-3.4 0-6.2-.2-8.6-.4V61.6zm4.8 32.5c1.2.2 3 .3 4.8.3 10.2 0 15.7-5.7 15.7-15.6.1-8.7-4.9-14.2-14.9-14.2-2.5 0-4.3.2-5.6.5v29zM132.1 97.8l-.4-3.3h-.2a9.79 9.79 0 01-8.1 3.9c-5.4 0-8.1-3.8-8.1-7.6 0-6.4 5.7-9.9 15.9-9.8v-.5c0-2.2-.6-6.1-6-6.1-2.5 0-5 .8-6.9 2l-1.1-3.2c2.2-1.4 5.4-2.3 8.7-2.3 8.1 0 10.1 5.5 10.1 10.8v9.9c0 2.3.1 4.5.4 6.3h-4.3zm-.7-13.4c-5.3-.1-11.2.8-11.2 5.9 0 3.1 2.1 4.6 4.5 4.6 3.4 0 5.6-2.2 6.4-4.4.2-.5.3-1 .3-1.5v-4.6zM146.6 63.9v7.6h6.9v3.7h-6.9v14.2c0 3.3.9 5.1 3.6 5.1 1.3 0 2.2-.2 2.8-.3l.2 3.6c-.9.4-2.4.7-4.3.7-2.2 0-4-.7-5.2-2-1.4-1.4-1.9-3.8-1.9-6.9V75.1h-4.1v-3.7h4.1v-6.3l4.8-1.2zM171.4 97.8l-.4-3.3h-.2a9.79 9.79 0 01-8.1 3.9c-5.4 0-8.1-3.8-8.1-7.6 0-6.4 5.7-9.9 15.9-9.8v-.5c0-2.2-.6-6.1-6-6.1-2.5 0-5 .8-6.9 2l-1.1-3.2c2.2-1.4 5.4-2.3 8.7-2.3 8.1 0 10.1 5.5 10.1 10.8v9.9c0 2.3.1 4.5.4 6.3h-4.3zm-.7-13.4c-5.3-.1-11.2.8-11.2 5.9 0 3.1 2.1 4.6 4.5 4.6 3.4 0 5.6-2.2 6.4-4.4.2-.5.3-1 .3-1.5v-4.6z"/></g></g></a></g><a href="https://ourworldindata.org/grapher/damage-costs-from-natural-disasters" target="_blank"><text font-size="25.2" x="15" y="35.2" fill="#555"><tspan x="15" y="35.16">Global damage costs from global natural disasters</tspan></text></a><text font-size="14.4" x="15" y="53.7" fill="#666"><tspan x="15" y="53.72">Total economic cost of damages as a result of global natural disasters in any given year, measured in current US$.</tspan><tspan x="15" y="69.56">Includes those from drought, floods, biological epidemics, extreme weather, extreme temperature, landslides, dry</tspan><tspan x="15" y="85.4">mass movements, extraterrestrial impacts, wildfires, volcanic activity and earthquakes.</tspan></text></g><g class="LineChart"><defs><clipPath id="a"><path d="M92.3 0h830v868.6h-830z"/></clipPath></defs><g class="AxisBoxView"><g class="HorizontalAxis" fill="#666" text-anchor="middle" font-size="16.2"><text x="102.3" y="541.9">1900</text><text x="201.4" y="541.9">1920</text><text x="300.4" y="541.9">1940</text><text x="399.5" y="541.9">1960</text><text x="498.6" y="541.9">1980</text><text x="597.7" y="541.9">2000</text><text x="681.9" y="541.9">2017</text></g><g class="VerticalAxis" fill="#666" dominant-baseline="middle" text-anchor="end" font-size="16.2"><text x="97.3" y="520.7">$0</text><text x="97.3" y="464">$50 billion</text><text x="97.3" y="407.2">$100 billion</text><text x="97.3" y="350.5">$150 billion</text><text x="97.3" y="293.8">$200 billion</text><text x="97.3" y="237.1">$250 billion</text><text x="97.3" y="180.3">$300 billion</text><text x="97.3" y="123.6">$350 billion</text></g><g class="AxisGridLines"><path stroke="#ccc" d="M102.3 520.7h579.58"/><path stroke="#ddd" stroke-dasharray="3,2" d="M102.3 464h579.58M102.3 407.2h579.58M102.3 350.5h579.58M102.3 293.8h579.58M102.3 237.1h579.58M102.3 180.3h579.58M102.3 123.6h579.58"/></g></g><g clip-path="url(#a)"><g class="HeightedLegend clickable"><g class="legendMark"><text font-size="13.5" x="686.9" y="361.3" fill="#3360a9"><tspan x="686.88" y="361.25">All natural disasters</tspan></text></g></g><g class="Lines"><g class="key-All-natural-disasters_0"><path stroke="#3360a9" stroke-linecap="round" d="M102 521l15-1h15l5 1h74l5-1 10 1h25l5-2 5 2h20l5-1h10l4 1h10l5-1 5 1 5-1 5 1h5l5-1 5 1h5l5-2 5 2 5-1h10l5 1h5l5-1h5l5-1 5 1 4-1h5l5-2 5 1 5-1 5 2 5 1 5-2 5-1 5 2 5-3 5 2 5-2 5 1 5-12 5 4 5 5 5 2 5-33 5 22 5 3 5-6 4 9 5-10 5 4 5-1 5-13 5-1 5-24 5 11 5-19 5 5 5-23 5-95 5 127 5 3 5-50 5-32 5 75 5 22 5-28 5-20 5-76 4-88 5 204 5-46 5-132 5 164 5-97 5-263 5 235 5 42 5 25 5 15 5-72 5 4" fill="none" stroke-width="1.5"/><g fill="#3360a9"><circle cx="102" cy="521" r="2"/><circle cx="117" cy="520" r="2"/><circle cx="132" cy="520" r="2"/><circle cx="137" cy="521" r="2"/><circle cx="142" cy="521" r="2"/><circle cx="157" cy="521" r="2"/><circle cx="162" cy="521" r="2"/><circle cx="167" cy="521" r="2"/><circle cx="172" cy="521" r="2"/><circle cx="177" cy="521" r="2"/><circle cx="187" cy="521" r="2"/><circle cx="192" cy="521" r="2"/><circle cx="196" cy="521" r="2"/><circle cx="201" cy="521" r="2"/><circle cx="211" cy="521" r="2"/><circle cx="216" cy="520" r="2"/><circle cx="226" cy="521" r="2"/><circle cx="231" cy="521" r="2"/><circle cx="236" cy="521" r="2"/><circle cx="241" cy="521" r="2"/><circle cx="246" cy="521" r="2"/><circle cx="251" cy="521" r="2"/><circle cx="256" cy="519" r="2"/><circle cx="261" cy="521" r="2"/><circle cx="266" cy="521" r="2"/><circle cx="271" cy="521" r="2"/><circle cx="276" cy="521" r="2"/><circle cx="281" cy="521" r="2"/><circle cx="286" cy="520" r="2"/><circle cx="291" cy="520" r="2"/><circle cx="296" cy="520" r="2"/><circle cx="300" cy="521" r="2"/><circle cx="310" cy="521" r="2"/><circle cx="315" cy="520" r="2"/><circle cx="320" cy="521" r="2"/><circle cx="325" cy="520" r="2"/><circle cx="330" cy="521" r="2"/><circle cx="335" cy="521" r="2"/><circle cx="340" cy="520" r="2"/><circle cx="345" cy="521" r="2"/><circle cx="350" cy="521" r="2"/><circle cx="355" cy="519" r="2"/><circle cx="360" cy="521" r="2"/><circle cx="365" cy="520" r="2"/><circle cx="370" cy="520" r="2"/><circle cx="375" cy="520" r="2"/><circle cx="380" cy="521" r="2"/><circle cx="385" cy="521" r="2"/><circle cx="390" cy="520" r="2"/><circle cx="395" cy="520" r="2"/><circle cx="400" cy="519" r="2"/><circle cx="405" cy="520" r="2"/><circle cx="409" cy="519" r="2"/><circle cx="414" cy="519" r="2"/><circle cx="419" cy="517" r="2"/><circle cx="424" cy="518" r="2"/><circle cx="429" cy="517" r="2"/><circle cx="434" cy="519" r="2"/><circle cx="439" cy="520" r="2"/><circle cx="444" cy="518" r="2"/><circle cx="449" cy="517" r="2"/><circle cx="454" cy="519" r="2"/><circle cx="459" cy="516" r="2"/><circle cx="464" cy="518" r="2"/><circle cx="469" cy="516" r="2"/><circle cx="474" cy="517" r="2"/><circle cx="479" cy="505" r="2"/><circle cx="484" cy="509" r="2"/><circle cx="489" cy="514" r="2"/><circle cx="494" cy="516" r="2"/><circle cx="499" cy="483" r="2"/><circle cx="504" cy="505" r="2"/><circle cx="509" cy="508" r="2"/><circle cx="514" cy="502" r="2"/><circle cx="518" cy="511" r="2"/><circle cx="523" cy="501" r="2"/><circle cx="528" cy="505" r="2"/><circle cx="533" cy="504" r="2"/><circle cx="538" cy="491" r="2"/><circle cx="543" cy="490" r="2"/><circle cx="548" cy="466" r="2"/><circle cx="553" cy="477" r="2"/><circle cx="558" cy="458" r="2"/><circle cx="563" cy="463" r="2"/><circle cx="568" cy="440" r="2"/><circle cx="573" cy="345" r="2"/><circle cx="578" cy="472" r="2"/><circle cx="583" cy="475" r="2"/><circle cx="588" cy="425" r="2"/><circle cx="593" cy="393" r="2"/><circle cx="598" cy="468" r="2"/><circle cx="603" cy="490" r="2"/><circle cx="608" cy="462" r="2"/><circle cx="613" cy="442" r="2"/><circle cx="618" cy="366" r="2"/><circle cx="622" cy="278" r="2"/><circle cx="627" cy="482" r="2"/><circle cx="632" cy="436" r="2"/><circle cx="637" cy="304" r="2"/><circle cx="642" cy="468" r="2"/><circle cx="647" cy="371" r="2"/><circle cx="652" cy="108" r="2"/><circle cx="657" cy="343" r="2"/><circle cx="662" cy="385" r="2"/><circle cx="667" cy="410" r="2"/><circle cx="672" cy="425" r="2"/><circle cx="677" cy="353" r="2"/><circle cx="682" cy="357" r="2"/></g></g></g></g></g><g class="SourcesFooter" fill="#777"><g class="clickable" fill="#777"><text font-size="12.6" x="15" y="567"><tspan x="15" y="566.98">Source: EMDAT: OFDA/CRED International Disaster Database, Université catholique de Louvain – Brussels – Belgium</tspan></text></g><text font-size="12.6" x="15" y="582.5"><tspan x="15" y="582.48"><a target="_blank" href="https://ourworldindata.org/natural-disasters" fill="#777">OurWorldInData.org/natural-disasters</a> • <a class="cclogo" href="http://creativecommons.org/licenses/by-sa/4.0/deed.en_US" target="_blank" fill="#777">CC BY-SA</a></tspan></text></g></g></svg>

<svg xmlns="http://www.w3.org/2000/svg" version="1.1" style="font-family:&#x27;Helvetica Neue&#x27;, Helvetica, Arial, sans-serif;font-size:18px;background-color:white;text-rendering:optimizeLegibility;-webkit-font-smoothing:antialiased" width="850" height="600"><g class="ChartTab"><g class="HeaderView"><g opacity="0.8" transform="translate(778, 15) scale(0.27)"><a xmlns:xlink="http://www.w3.org/1999/xlink" xlink:href="https://ourworldindata.org" target="_blank"><g><rect x="0" y="0" fill="#1B2543" width="211.2" height="130.1"/><rect x="0" y="112.2" fill="#E63912" width="211.2" height="17.9"/><g><rect x="1.2" y="12.3" fill="none" width="210.2" height="99.2"/><path fill="#FFFFFF" d="M37.8,32.2c0,12.7-7.7,19.4-17.1,19.4c-9.7,0-16.6-7.5-16.6-18.7c0-11.7,7.3-19.3,17.1-19.3 C31.3,13.7,37.8,21.3,37.8,32.2z M9.2,32.8c0,7.9,4.3,14.9,11.8,14.9c7.5,0,11.8-6.9,11.8-15.3c0-7.3-3.8-14.9-11.8-14.9 C13.1,17.5,9.2,24.8,9.2,32.8z"/><path fill="#FFFFFF" d="M62.7,43.8c0,2.7,0.1,5.1,0.2,7.2h-4.3l-0.3-4.3h-0.1c-1.3,2.1-4,4.9-8.8,4.9c-4.2,0-9.1-2.3-9.1-11.6 V24.6h4.8v14.6c0,5,1.5,8.4,5.9,8.4c3.2,0,5.5-2.2,6.3-4.4c0.3-0.7,0.4-1.6,0.4-2.5V24.6h4.8V43.8z"/><path fill="#FFFFFF" d="M67.3,32.8c0-3.1-0.1-5.8-0.2-8.2h4.2l0.2,5.2h0.2c1.2-3.5,4.1-5.8,7.3-5.8c0.5,0,0.9,0.1,1.4,0.2v4.5 c-0.5-0.1-1-0.2-1.6-0.2c-3.4,0-5.8,2.6-6.5,6.2c-0.1,0.7-0.2,1.4-0.2,2.2V51h-4.8V32.8z"/><path fill="#FFFFFF" d="M95.4,51l-9.4-36.8h5l4.4,18.6c1.1,4.6,2.1,9.2,2.7,12.7h0.1c0.6-3.7,1.8-8,3-12.8l4.9-18.5h5l4.5,18.7 c1,4.4,2,8.7,2.6,12.6h0.1c0.8-4,1.8-8.1,3-12.7l4.9-18.5h4.9L120.6,51h-5L111,31.9c-1.1-4.7-1.9-8.3-2.4-12h-0.1 c-0.7,3.7-1.5,7.3-2.8,12L100.4,51H95.4z"/><path fill="#FFFFFF" d="M154.9,37.6c0,9.8-6.8,14-13.2,14c-7.2,0-12.7-5.2-12.7-13.6c0-8.8,5.8-14,13.1-14 C149.8,24,154.9,29.5,154.9,37.6z M133.9,37.9c0,5.8,3.3,10.1,8,10.1c4.6,0,8-4.3,8-10.3c0-4.5-2.2-10.1-7.9-10.1 C136.3,27.6,133.9,32.8,133.9,37.9z"/><path fill="#FFFFFF" d="M158.2,32.8c0-3.1-0.1-5.8-0.2-8.2h4.2l0.2,5.2h0.2c1.2-3.5,4.1-5.8,7.3-5.8c0.5,0,0.9,0.1,1.4,0.2v4.5 c-0.5-0.1-1-0.2-1.6-0.2c-3.4,0-5.8,2.6-6.5,6.2c-0.1,0.7-0.2,1.4-0.2,2.2V51h-4.8V32.8z"/><path fill="#FFFFFF" d="M173.5,12.3h4.8V51h-4.8V12.3z"/><path fill="#FFFFFF" d="M206.5,12.3v31.9c0,2.3,0.1,5,0.2,6.8h-4.3l-0.2-4.6H202c-1.5,2.9-4.7,5.2-9,5.2 c-6.4,0-11.3-5.4-11.3-13.4c-0.1-8.8,5.4-14.2,11.9-14.2c4,0,6.8,1.9,8,4h0.1V12.3H206.5z M201.7,35.4c0-0.6-0.1-1.4-0.2-2 c-0.7-3.1-3.3-5.6-6.9-5.6c-5,0-7.9,4.4-7.9,10.2c0,5.3,2.6,9.8,7.8,9.8c3.2,0,6.2-2.1,7.1-5.7c0.2-0.7,0.2-1.3,0.2-2.1V35.4z"/><path fill="#FFFFFF" d="M42.8,64c0.1,1.6-1.1,2.9-3.1,2.9c-1.7,0-2.9-1.3-2.9-2.9c0-1.7,1.3-3,3-3C41.7,61,42.8,62.3,42.8,64z M37.4,97.8V71.4h4.8v26.4H37.4z"/><path fill="#FFFFFF" d="M47.5,78.6c0-2.7-0.1-5-0.2-7.1h4.3l0.3,4.4h0.1c1.3-2.5,4.4-5,8.8-5c3.7,0,9.4,2.2,9.4,11.2v15.8h-4.8 V82.6c0-4.3-1.6-7.8-6.1-7.8c-3.2,0-5.6,2.2-6.5,4.9c-0.2,0.6-0.3,1.4-0.3,2.2v15.9h-4.8V78.6z"/><path fill="#FFFFFF" d="M84,61.6c2.9-0.4,6.3-0.8,10.1-0.8c6.8,0,11.7,1.6,14.9,4.6c3.3,3,5.2,7.3,5.2,13.2c0,6-1.9,10.9-5.3,14.3 c-3.4,3.4-9.1,5.3-16.3,5.3c-3.4,0-6.2-0.2-8.6-0.4V61.6z M88.8,94.1c1.2,0.2,3,0.3,4.8,0.3c10.2,0,15.7-5.7,15.7-15.6 c0.1-8.7-4.9-14.2-14.9-14.2c-2.5,0-4.3,0.2-5.6,0.5V94.1z"/><path fill="#FFFFFF" d="M132.1,97.8l-0.4-3.3h-0.2c-1.5,2.1-4.3,3.9-8.1,3.9c-5.4,0-8.1-3.8-8.1-7.6c0-6.4,5.7-9.9,15.9-9.8v-0.5 c0-2.2-0.6-6.1-6-6.1c-2.5,0-5,0.8-6.9,2l-1.1-3.2c2.2-1.4,5.4-2.3,8.7-2.3c8.1,0,10.1,5.5,10.1,10.8v9.9c0,2.3,0.1,4.5,0.4,6.3 H132.1z M131.4,84.4c-5.3-0.1-11.2,0.8-11.2,5.9c0,3.1,2.1,4.6,4.5,4.6c3.4,0,5.6-2.2,6.4-4.4c0.2-0.5,0.3-1,0.3-1.5V84.4z"/><path fill="#FFFFFF" d="M146.6,63.9v7.6h6.9v3.7h-6.9v14.2c0,3.3,0.9,5.1,3.6,5.1c1.3,0,2.2-0.2,2.8-0.3l0.2,3.6 c-0.9,0.4-2.4,0.7-4.3,0.7c-2.2,0-4-0.7-5.2-2c-1.4-1.4-1.9-3.8-1.9-6.9V75.1h-4.1v-3.7h4.1v-6.3L146.6,63.9z"/><path fill="#FFFFFF" d="M171.4,97.8l-0.4-3.3h-0.2c-1.5,2.1-4.3,3.9-8.1,3.9c-5.4,0-8.1-3.8-8.1-7.6c0-6.4,5.7-9.9,15.9-9.8v-0.5 c0-2.2-0.6-6.1-6-6.1c-2.5,0-5,0.8-6.9,2l-1.1-3.2c2.2-1.4,5.4-2.3,8.7-2.3c8.1,0,10.1,5.5,10.1,10.8v9.9c0,2.3,0.1,4.5,0.4,6.3 H171.4z M170.7,84.4c-5.3-0.1-11.2,0.8-11.2,5.9c0,3.1,2.1,4.6,4.5,4.6c3.4,0,5.6-2.2,6.4-4.4c0.2-0.5,0.3-1,0.3-1.5V84.4z"/></g></g></a></g><a href="https://ourworldindata.org/grapher/damage-costs-from-natural-disasters" target="_blank"><text font-size="25.20" x="15.0" y="35.2" fill="#555"><tspan x="15" y="35.160000000000004">Global damage costs from global natural disasters</tspan></text></a><text font-size="14.40" x="15.0" y="53.7" fill="#666"><tspan x="15" y="53.72">Total economic cost of damages as a result of global natural disasters in any given year, measured in current US$.</tspan><tspan x="15" y="69.56">Includes those from drought, floods, biological epidemics, extreme weather, extreme temperature, landslides, dry</tspan><tspan x="15" y="85.4">mass movements, extraterrestrial impacts, wildfires, volcanic activity and earthquakes.</tspan></text></g><g class="LineChart"><defs><clipPath id="boundsClip-4"><rect x="92.296" y="0" width="830" height="868.5999999999999"></rect></clipPath></defs><g class="AxisBoxView"><g class="HorizontalAxis"><text x="102.3" y="541.9" fill="#666" text-anchor="middle" font-size="16.2">1900</text><text x="201.4" y="541.9" fill="#666" text-anchor="middle" font-size="16.2">1920</text><text x="300.4" y="541.9" fill="#666" text-anchor="middle" font-size="16.2">1940</text><text x="399.5" y="541.9" fill="#666" text-anchor="middle" font-size="16.2">1960</text><text x="498.6" y="541.9" fill="#666" text-anchor="middle" font-size="16.2">1980</text><text x="597.7" y="541.9" fill="#666" text-anchor="middle" font-size="16.2">2000</text><text x="681.9" y="541.9" fill="#666" text-anchor="middle" font-size="16.2">2017</text></g><g class="VerticalAxis"><text x="97.30" y="520.7" fill="#666" dominant-baseline="middle" text-anchor="end" font-size="16.2">$0</text><text x="97.30" y="464" fill="#666" dominant-baseline="middle" text-anchor="end" font-size="16.2">$50 billion</text><text x="97.30" y="407.2" fill="#666" dominant-baseline="middle" text-anchor="end" font-size="16.2">$100 billion</text><text x="97.30" y="350.5" fill="#666" dominant-baseline="middle" text-anchor="end" font-size="16.2">$150 billion</text><text x="97.30" y="293.8" fill="#666" dominant-baseline="middle" text-anchor="end" font-size="16.2">$200 billion</text><text x="97.30" y="237.1" fill="#666" dominant-baseline="middle" text-anchor="end" font-size="16.2">$250 billion</text><text x="97.30" y="180.3" fill="#666" dominant-baseline="middle" text-anchor="end" font-size="16.2">$300 billion</text><text x="97.30" y="123.6" fill="#666" dominant-baseline="middle" text-anchor="end" font-size="16.2">$350 billion</text></g><g class="AxisGridLines"><line x1="102.30" y1="520.7" x2="681.88" y2="520.7" stroke="#ccc"></line><line x1="102.30" y1="464" x2="681.88" y2="464" stroke="#ddd" stroke-dasharray="3,2"></line><line x1="102.30" y1="407.2" x2="681.88" y2="407.2" stroke="#ddd" stroke-dasharray="3,2"></line><line x1="102.30" y1="350.5" x2="681.88" y2="350.5" stroke="#ddd" stroke-dasharray="3,2"></line><line x1="102.30" y1="293.8" x2="681.88" y2="293.8" stroke="#ddd" stroke-dasharray="3,2"></line><line x1="102.30" y1="237.1" x2="681.88" y2="237.1" stroke="#ddd" stroke-dasharray="3,2"></line><line x1="102.30" y1="180.3" x2="681.88" y2="180.3" stroke="#ddd" stroke-dasharray="3,2"></line><line x1="102.30" y1="123.6" x2="681.88" y2="123.6" stroke="#ddd" stroke-dasharray="3,2"></line></g></g><g clip-path="url(#boundsClip-4)"><g class="HeightedLegend clickable"><g class="legendMark"><rect x="681.875" y="350.45" width="153.125" height="13.5" fill="#fff" opacity="0"></rect><text font-size="13.50" x="686.9" y="361.3" fill="#3360a9"><tspan x="686.875" y="361.25">All natural disasters</tspan></text></g></g><g class="Lines"><rect x="102" y="108" width="580" height="413" fill="rgba(255,255,255,0)" opacity="0"></rect><g class="key-All-natural-disasters_0"><path stroke="#3360a9" stroke-linecap="round" d="M102 521L117 520L132 520L137 521L142 521L157 521L162 521L167 521L172 521L177 521L187 521L192 521L196 521L201 521L211 521L216 520L226 521L231 521L236 521L241 521L246 521L251 521L256 519L261 521L266 521L271 521L276 521L281 521L286 520L291 520L296 520L300 521L310 521L315 520L320 521L325 520L330 521L335 521L340 520L345 521L350 521L355 519L360 521L365 520L370 520L375 520L380 521L385 521L390 520L395 520L400 519L405 520L409 519L414 519L419 517L424 518L429 517L434 519L439 520L444 518L449 517L454 519L459 516L464 518L469 516L474 517L479 505L484 509L489 514L494 516L499 483L504 505L509 508L514 502L518 511L523 501L528 505L533 504L538 491L543 490L548 466L553 477L558 458L563 463L568 440L573 345L578 472L583 475L588 425L593 393L598 468L603 490L608 462L613 442L618 366L622 278L627 482L632 436L637 304L642 468L647 371L652 108L657 343L662 385L667 410L672 425L677 353L682 357" fill="none" stroke-width="1.5"></path><g fill="#3360a9"><circle cx="102" cy="521" r="2"></circle><circle cx="117" cy="520" r="2"></circle><circle cx="132" cy="520" r="2"></circle><circle cx="137" cy="521" r="2"></circle><circle cx="142" cy="521" r="2"></circle><circle cx="157" cy="521" r="2"></circle><circle cx="162" cy="521" r="2"></circle><circle cx="167" cy="521" r="2"></circle><circle cx="172" cy="521" r="2"></circle><circle cx="177" cy="521" r="2"></circle><circle cx="187" cy="521" r="2"></circle><circle cx="192" cy="521" r="2"></circle><circle cx="196" cy="521" r="2"></circle><circle cx="201" cy="521" r="2"></circle><circle cx="211" cy="521" r="2"></circle><circle cx="216" cy="520" r="2"></circle><circle cx="226" cy="521" r="2"></circle><circle cx="231" cy="521" r="2"></circle><circle cx="236" cy="521" r="2"></circle><circle cx="241" cy="521" r="2"></circle><circle cx="246" cy="521" r="2"></circle><circle cx="251" cy="521" r="2"></circle><circle cx="256" cy="519" r="2"></circle><circle cx="261" cy="521" r="2"></circle><circle cx="266" cy="521" r="2"></circle><circle cx="271" cy="521" r="2"></circle><circle cx="276" cy="521" r="2"></circle><circle cx="281" cy="521" r="2"></circle><circle cx="286" cy="520" r="2"></circle><circle cx="291" cy="520" r="2"></circle><circle cx="296" cy="520" r="2"></circle><circle cx="300" cy="521" r="2"></circle><circle cx="310" cy="521" r="2"></circle><circle cx="315" cy="520" r="2"></circle><circle cx="320" cy="521" r="2"></circle><circle cx="325" cy="520" r="2"></circle><circle cx="330" cy="521" r="2"></circle><circle cx="335" cy="521" r="2"></circle><circle cx="340" cy="520" r="2"></circle><circle cx="345" cy="521" r="2"></circle><circle cx="350" cy="521" r="2"></circle><circle cx="355" cy="519" r="2"></circle><circle cx="360" cy="521" r="2"></circle><circle cx="365" cy="520" r="2"></circle><circle cx="370" cy="520" r="2"></circle><circle cx="375" cy="520" r="2"></circle><circle cx="380" cy="521" r="2"></circle><circle cx="385" cy="521" r="2"></circle><circle cx="390" cy="520" r="2"></circle><circle cx="395" cy="520" r="2"></circle><circle cx="400" cy="519" r="2"></circle><circle cx="405" cy="520" r="2"></circle><circle cx="409" cy="519" r="2"></circle><circle cx="414" cy="519" r="2"></circle><circle cx="419" cy="517" r="2"></circle><circle cx="424" cy="518" r="2"></circle><circle cx="429" cy="517" r="2"></circle><circle cx="434" cy="519" r="2"></circle><circle cx="439" cy="520" r="2"></circle><circle cx="444" cy="518" r="2"></circle><circle cx="449" cy="517" r="2"></circle><circle cx="454" cy="519" r="2"></circle><circle cx="459" cy="516" r="2"></circle><circle cx="464" cy="518" r="2"></circle><circle cx="469" cy="516" r="2"></circle><circle cx="474" cy="517" r="2"></circle><circle cx="479" cy="505" r="2"></circle><circle cx="484" cy="509" r="2"></circle><circle cx="489" cy="514" r="2"></circle><circle cx="494" cy="516" r="2"></circle><circle cx="499" cy="483" r="2"></circle><circle cx="504" cy="505" r="2"></circle><circle cx="509" cy="508" r="2"></circle><circle cx="514" cy="502" r="2"></circle><circle cx="518" cy="511" r="2"></circle><circle cx="523" cy="501" r="2"></circle><circle cx="528" cy="505" r="2"></circle><circle cx="533" cy="504" r="2"></circle><circle cx="538" cy="491" r="2"></circle><circle cx="543" cy="490" r="2"></circle><circle cx="548" cy="466" r="2"></circle><circle cx="553" cy="477" r="2"></circle><circle cx="558" cy="458" r="2"></circle><circle cx="563" cy="463" r="2"></circle><circle cx="568" cy="440" r="2"></circle><circle cx="573" cy="345" r="2"></circle><circle cx="578" cy="472" r="2"></circle><circle cx="583" cy="475" r="2"></circle><circle cx="588" cy="425" r="2"></circle><circle cx="593" cy="393" r="2"></circle><circle cx="598" cy="468" r="2"></circle><circle cx="603" cy="490" r="2"></circle><circle cx="608" cy="462" r="2"></circle><circle cx="613" cy="442" r="2"></circle><circle cx="618" cy="366" r="2"></circle><circle cx="622" cy="278" r="2"></circle><circle cx="627" cy="482" r="2"></circle><circle cx="632" cy="436" r="2"></circle><circle cx="637" cy="304" r="2"></circle><circle cx="642" cy="468" r="2"></circle><circle cx="647" cy="371" r="2"></circle><circle cx="652" cy="108" r="2"></circle><circle cx="657" cy="343" r="2"></circle><circle cx="662" cy="385" r="2"></circle><circle cx="667" cy="410" r="2"></circle><circle cx="672" cy="425" r="2"></circle><circle cx="677" cy="353" r="2"></circle><circle cx="682" cy="357" r="2"></circle></g></g></g></g></g><g class="SourcesFooter" style="fill:#777"><g class="clickable" style="fill:#777"><text font-size="12.60" x="15.0" y="567.0"><tspan x="15" y="566.98">Source: EMDAT: OFDA/CRED International Disaster Database, Université catholique de Louvain – Brussels – Belgium</tspan></text></g><text font-size="12.60" x="15.0" y="582.5"><tspan x="15" y="582.48"><a target='_blank' style='fill: #777;' href='https://ourworldindata.org/natural-disasters'>OurWorldInData.org/natural-disasters</a> • <a style="fill: #777;" class="cclogo" href="http://creativecommons.org/licenses/by-sa/4.0/deed.en_US" target="_blank">CC BY-SA</a></tspan></text></g></g></svg>
